!!!!SEGMENT: pl-wnifc--493-n--010_oginski-michal-kleofas--16-polonaises-10-polonaise-in-g.krn
!!!cenid: 18xx:3869
!!!COM: Ogiński, Michał Kleofas
!!!COM-rismID: pe30002379
!!!CDT: 1765/09/25-1833/10/15
!!!CNT:
!!!GTL: 16 Polonaises
!!!OTL: 10. [Polonaise in G]
!!!OMV: 010
!!!PDT: 1864
!!!AGN:
!!!SMS-siglum: PL-Wnifc
!!!SMS-shelfmark: 493/n
!!!SMS-shelfwork: 001-010 G
!!!SMS-variant:
!!!SMS-altvar: G
!!!NIFC-rismSourceID: 1001157350
!!!NIFC-rismChildID: 1001157362
!!!NIFC-islandoraID: nifc:212371
!!!URL-pdf-islandora: https://repozytorium.nifc.pl/islandora/object/nifc%3A212371/datastream/PDF/view
!!!URL-scan: https://polish.musicsources.pl/pl/lokalizacje/galeria/druki-muzyczne/16843 @EN{Scan on Polish Music Sources Website} @PL{Skany w portalu Dziedzictwo Muzyki Polskiej w otwartym dostępie}
!!!IIIF:
!!!ONB-nifc: UWAGA: w zbiorze znajduje się 14 Polonezów z Triami, pliki są numerowane jak w źródle.
!!!AIN: 1 piano
!!!key: G
!!!OMD: Moderato.
!!!OMD-mod: Moderato
!!!filter-modern: sic -sq | shed -k -e "s/:TUP:/:tup:/L" | shed -e "s/TX(.*):t=P:/tx$1:t=P:/LG" | shed -k -e "s/LO:N:vis/LO:n:vis:/L"  | shed -e "s/:rj/:RJ/L" | shed -k -e "s/([^a-gA-Gn#X-])[<>]/$1/g" | shed -e "s/LO:DY:(a|b|rj)/LO:dy:$1/L" | shed -e "s/-//B" | autostem -r | modori -m
**kern	**kern	**dynam
*part1	*part1	*part1
*staff2	*staff1	*
*I"Piano.	*I"Piano.	*
*I'	*I'	*
*Ipiano	*Ipiano	*
*ICklav	*ICklav	*
*IGsolo	*IGsolo	*
*mI"Pianoforte	*mI"Pianoforte	*
*mI'pf	*mI'pf	*
*clefF4	*clefG2	*
*k[f#]	*k[f#]	*
*G:	*G:	*
*M3/4	*M3/4	*
*>[A,A,B,A,C,C,D,C,A]	*>[A,A,B,A,C,C,D,C,A]	*
=1	=1	=1
*>A	*>A	*
!	!LO:TX:b:i:t=dolce.:mod=dolce	!
.	(8qccc#X/	p
(8G\L 8B	8ddd\L)	.
.	(8qccc#/	.
8d\J)	8ddd\J)	.
(8G\L 8B	4.bb^\	.
8d\	.	.
8G\ 8B	.	.
8d\J)	8gg\	.
=2	=2	=2
.	(8qccc#X/	.
(8F#\L 8c	8ddd\L)	.
.	(8qccc#/	.
8d\J)	8ddd\J)	.
(8F#\L 8c	4.cccn^\	.
8d\	.	.
8F#\ 8c	.	.
8d\J)	8aa\	.
=3	=3	=3
(8G\L 8B	(16ccc#X\LL	.
.	16ddd\	.
8d\J)	16eee\	.
.	16ddd\JJ)	.
(8G\L 8B	(16ccc#\LL	.
.	16ddd\	.
8d\	16eee\	.
.	16ddd\JJ)	.
8G\ 8B	(16cccn\LL	.
.	16bb\)	.
8d\J)	16aa'\	.
.	16gg'\JJ	.
!!LO:LB:g=original
=4	=4	=4
4D:\ 4F#: 4A: 4d:	(16ff#\LL	f >
.	16aa\)	.
.	16ccc#X'\	.
.	16ddd'\JJ	.
4r	(16cccn\LL	.
.	16aa\)	.
.	16ff#'\	.
.	16dd'\JJ	.
4r	(16cc#X\LL	.
.	16dd\)	.
.	16ccn'\	.
.	16a'\JJ	]]
=5	=5	=5
(8G\L 8B	(16b\LL	f
.	16cc\	.
8d\J)	16cc#X\	.
.	16dd\JJ)	.
(8G\L 8B	4.b^\	.
8d\	.	.
8G\ 8B	.	.
8d\J)	8g/	.
=6	=6	=6
*^	*	*
(8A/L 8c	2.D\	(16ee\LL	.
.	.	16dd\	.
8d/J)	.	16cc#X\	.
.	.	16ccn\JJ)	.
(8A/L 8c	.	4.a^>/	.
8d/	.	.	.
8A/ 8c	.	.	.
8d/J)	.	8cc\	.
*v	*v	*	*
!!LO:LB:g=original
=7	=7	=7
4G\ 4B	8b'\L	.
.	(16gg\L	.
.	16ff#\JJ)	.
4C\ 4E 4A	8ee'\L	.
.	(16fff#\L	.
.	16eee\JJ)	.
4C\ 4E 4A	16ddd\LL	.
.	16ccc\	.
.	16bb\	.
.	16aa\JJ	.
=8	=8	=8
*^	*	*
8B/L	4D\	(16gg\LL	.
.	.	16ff#\)	.
8c/J	.	16bb'\	.
.	.	16aa'\JJ	.
4rcyy	8rA	((4cc\ 4aa	.
.	8DD/L	.	.
4rcyy	8GG/J	8b\)) 8gg	.
!	!	!LO:TX:b:i:t=Fine.:mod=	!
.	8rA	8r	.
*v	*v	*	*
*clefG2	*	*
!!LO:TX:a:B:rj:t=:mod=Fine
=9:|!	=9:|!	=9:|!
*>B	*>B	*
4d/ 4a	(16gg#X\LL	fp
.	16aa\	.
.	16bb\	.
.	16aa\JJ)	.
8r	4aa\	.
8d/L 8a	.	.
8d/ 8a	4r	.
8d/J 8a	.	.
!!LO:LB:g=original
=10	=10	=10
4g/ 4b	(16aa#X\LL	fp
.	16bb\	.
.	16ccc\	.
.	16bb\JJ)	.
8r	4bb\	.
8g/L 8b	.	.
8g/ 8b	4r	.
8g/J 8b	.	.
=11	=11	=11
4a'\ 4cc	(16ddd\LL	.
.	16ccc\J)	.
.	8aa'^\J	.
4d'/ 4a	(16ddd\LL	.
.	16ccc\J)	.
.	8aa'^\J	.
4g'/ 4b	(16ccc\LL	.
.	16bb\)	>
.	16aa'\	.
.	16gg'\JJ	]
=12	=12	=12
4d/ 4a	16ff#'\LL	>
.	(16ddd\	.
.	16ccc\)	.
.	16aa'\JJ	.
4r	16ff#'\LL	.
.	(16ccc\	.
.	16aa\)	.
.	16ff#'\JJ	.
4r	(16dd\LL	.
.	16cc#X\	.
.	16ccn\	]
.	16a\JJ)	.
!!LO:PB:g=original
*clefF4	*	*
=13	=13	=13
*^	*	*
(8A/L 8c	2.D\	(16g#X/LL	p
.	.	16a/	.
8d/J)	.	16b/	.
.	.	16a/JJ)	.
(8A/L 8c	.	(16dd\KL	.
.	.	8cc^\	.
8d/	.	.	.
.	.	16a\Jk)	.
8A/ 8c	.	(16dd\KL	.
.	.	8cc^\	.
8d/J)	.	.	.
.	.	16a\Jk)	.
=14	=14	=14	=14
(8G/L 8B	2.D\	(16a#X\LL	.
.	.	16b\	.
8d/J)	.	16cc\	.
.	.	16b\JJ)	.
(8G/L 8B	.	(16ee\KL	.
.	.	8dd^\	.
8d/	.	.	.
.	.	16b\Jk)	.
8G/ 8B	.	(16ee\KL	.
.	.	8dd^\	.
8d/J)	.	.	.
.	.	16b\Jk)	.
!!LO:LB:g=original
=15	=15	=15	=15
(8A/L 8c	2D\	(16cc\LL	.
.	.	16ff#\	.
8d/	.	16aa\	.
.	.	16gg\JJ)	.
8A/ 8c	.	(16ff#\LL	.
.	.	16ee\	.
8d/J)	.	16dd\	.
.	.	16cc\JJ)	.
8B/	8G\L	(16b\LL	.
.	.	16gg\)	.
8rc	8BB\J	16dd'\	.
.	.	16b'\JJ	.
*v	*v	*	*
=16	=16	=16
[4C/	(16a\LL	>
.	16dd#X\	.
.	16ff#\	.
.	16ee\JJ)	.
8C/L]	(16ddn\LL	.
.	16cc\	.
8C#X/J	16b\	.
.	16a\JJ)	.
!LO:TX:b:i:t=Da Capo al Fine.:mod=	!	!
8D\	(8g/L	]
8r	8f#/J)	.
*clefG2	*clefF4	*
!!LO:TX:a:B:rj:t=:mod=Da Capo al Fine
!!LO:LB:g=original
==17	==17	==17
*>C	*>C	*
.	(32qqD/LLL	p
.	32qqE/	.
!	!LO:TX:a:B:t=Trio.	!
!	!LO:TX:a:t=M.D.:mod=m.d.	!
!LO:TX:a:t=M.G.:mod=m.g.	!LO:TX:b:i:t=dolce espressivo.:mod=dolce espressivo	!
.	32qqF#/JJJ	.
(16b\LL	4.G\)	.
16dd\	.	.
16b\	.	.
16dd\JJ)	.	.
(16b\LL	.	.
16dd\	.	.
16b\	8GsS\	.
16dd\JJ)	.	.
(16cc\LL	8.A\L	.
16dd\	.	.
16cc\	.	.
16dd\JJ)	16F#\Jk	.
=18	=18	=18
(16b\LL	(16G\LL	.
16dd\	16B\JJ)	.
16b\	4d^\	.
16dd\JJ)	.	.
(16b\LL	.	.
16dd\	.	.
16b\	8B\	.
16dd\JJ)	.	.
(16cc\LL	(16d\LL	.
16dd\	16c\)	.
16cc\	16A'\	.
16dd\JJ)	16F#'\JJ	.
!!LO:LB:g=original
=19	=19	=19
(16b\LL	4G^\	.
16dd\	.	.
16b\	.	.
16dd\JJ)	.	.
(16b\LL	8r	.
16dd\	.	.
16b\	8GsS\	.
16dd\JJ)	.	.
(16cc\LL	(8.A\L	.
16dd\	.	.
16cc\	.	.
16dd\JJ)	16B\Jk)	.
=20	=20	=20
(16b\LL	8G'\L	.
16dd\	.	.
16cc\	(16A\L	.
16dd\JJ)	16B\JJ)	.
(16b\LL	8G\L	.
16dd\	.	.
16cc\	(16A\L	.
16dd\JJ)	16B\JJ)	.
8b\	8G'\	.
!	!LO:TX:b:i:t=Fine.:mod=	!
8r	8r	.
*	*clefG2	*
!!LO:TX:a:B:rj:t=:mod=Fine
=21:|!	=21:|!	=21:|!
*>D	*>D	*
16f#\LL	8aa'\L	mf
16dd\	.	.
16g\	8bb'\	.
16dd\JJ	.	.
16a\LL	8ccc'\	.
16dd\	.	.
16g\	8bb'\	.
16dd\JJ	.	.
16cc\LL	8aa'\	.
16dd\	.	.
16b\	8gg'\J	.
16dd\JJ	.	.
!!LO:LB:g=original
=22	=22	=22
16cc\LL	8ff#'\L	.
16dd\	.	.
16b\	8gg'\	.
16dd\JJ	.	.
16cc\LL	8ff#'\	.
16dd\	.	.
16b\	8gg'\	.
16dd\JJ	.	.
16f#\LL	8aa'\	.
16dd\	.	.
16g\	8bb'\J	.
16dd\JJ	.	.
=23	=23	=23
16a\LL	8ccc'\L	<
16dd\	.	.
16g\	8bb'\	.
16dd\JJ	.	.
16a\LL	8ccc'\	.
16dd\	.	.
16g\	8bb'\	.
16dd\JJ	.	.
16f#\LL	8aa'\	.
16dd\	.	.
16e\	8gg'\J	.
16dd\JJ	.	[[
=24	=24	=24
4d/	16ff#\LL	f >
.	(16ddd\	.
.	16ccc\	.
.	16aa\JJ	.
!LO:TX:b:i:t=Trio Da Capo al Fine.:mod=	!	!
4r	16ff#\LL	.
.	16dd\	.
.	16cc\	.
.	16a\JJ	.
4r	16f#/LL	.
.	16d/	.
.	16c/	.
.	16A/JJ)	]]
!!LO:TX:a:B:t=:mod=Trio da Capo al Fine
==	==	==
*-	*-	*-
!!!RDF**kern: > = above
!!!RDF**kern: < = below
!!!system-decoration: {(*)}
!!!ENC: Solarz Mateusz
!!!END: 2022-07-25
!!!ENC: Urszula Świątek
!!!END: 2022-08-22
!!!ENC-modern: Andrzej Borzym
!!!END-modern: 2022-08-30
!!!YEC: Copyright 2022 Narodowy Instytut Fryderyka Chopina (https://polishscores.org)
!!!YEM: License CC-BY-4.0 (https://creativecommons.org/licenses/by/4.0)
